X:1
T:The Church's One Foundation
T:Text: Samuel J. Stone (1839-1900) Tune: Samuel S. Wesley (1810-1876)
T:76 76D AURELIA www.hymnary.org/text/the_churchs_one_foundation
T:The Church's One Foundation
T:This hymn is in the public domain.  You may freely use this score for personal and congregational worship.  If you reproduce the score, please credit Hymnary.org as the source. 
T:This hymn is in the public domain.  You may freely use this score for personal and congregational worship.  If you reproduce the score, please credit Hymnary.org as the source. 
Z:This hymn is in the public domain.  You may freely use this score for personal and congregational worship.  If you reproduce the score, please credit Hymnary.org as the source.
%%score ( 1 2 ) ( 3 4 )
L:1/8
M:4/4
K:D
V:1 treble nm="Piano" snm="Pno."
V:2 treble 
V:3 bass nm="Piano" snm="Pno."
V:4 bass 
V:1
 [DF]2 | [DF]2 [DF]2 [DG]2 [DF]2 | [DF]4 [CE]2 D2 | [B,D]2 [DB]2 [DA]2 [CG]2 | [DF]6 | [CG]2 | %6
w: 3~Though|with a scorn- ful|won- der we|see her sore op-|pressed,|by|
w: 1~The|Church's _ one foun-|da- tion is|Je- sus Christ her|Lord;|she|
w: 2~E-|lect from ev- ery|na- tion, yet|one o’er all the|earth,|her|
 [DA]2 [Dd]2 [Dd]2 [Ec]2 | [Ec]4 [DB]2 [FA]2 | G2 [EA]2 [DF]2 D2 | [CE]6 | [CE]2 | %11
w: schisms the rent a-|sun- der, by|he- re- sies dis-|tressed:|yet|
w: is his new cre-|a- tion, by|wa- ter and the|word:|from|
w: char- ter of sal-|va- tion: one|Lord, one faith, one|birth;|one|
 [DF]2 [CG]2 [DA]2 [DB]2 | [DB]4 [DA]2 [Fd]2 | [Fd]3 [Fc] [FB]2 F2 | [EG]6 | E2 | %16
w: saints their watch are|keep- ing, their|cry goes up, “How|long?”|and|
w: heaven he came and|sought her to|be his ho- ly|bride;|with|
w: ho- ly name she|bles- ses, par-|takes one ho- ly|food,|and|
 [DF]2 [DF]2 [DG]2 [DF]2 | [B,F]4 [B,E]2 [B,D]2 | [B,D]2 [B,E]2 [A,D]2 [A,C]2 | [A,D]6 |] %20
w: soon the night of|weep- ing shall|be the morn of|song.|
w: his own blood he|bought her, and|for her life he|died.|
w: to one hope she|pres- ses with|ev- ery grace en-|dued.|
V:2
 x2 | x8 | x6 D2 | x8 | x6 | x2 | x8 | x8 | F2 x4 D2 | x6 | x2 | x8 | x8 | x6 F2 | x6 | E2 | x8 | %17
 x8 | x8 | x6 |] %20
V:3
 [D,A,]2 | [D,A,]2 [D,A,]2 [D,B,]2 [D,A,]2 | [A,,A,]4 [G,,A,]2 [F,,A,]2 | %3
 [G,,E,]2 [G,,E,]2 [A,,F,]2 [A,,A,]2 | [D,A,]6 | [E,A,]2 | [F,A,]2 [F,A,]2 [F,^A,]2 [F,,A,]2 | %7
 [G,,^A,]4 [G,,B,]2 [A,,C]2 | [B,,D]2 [C,A,]2 [D,A,]2 [B,,^G,]2 | [A,,A,]6 | [A,,A,]2 | %11
 [D,A,]2 [E,A,]2 [F,A,]2 G,2 | G,4 [F,A,]2 [B,,B,]2 | [F,B,]3 [E,^A,] [D,B,]2 [^D,B,]2 | [E,B,]6 | %15
 [C,A,]2 | [D,A,]2 [D,A,]2 [D,B,]2 [D,A,]2 | [G,,A,]4 [G,,G,]2 [G,,G,]2 | %18
 [E,,G,]2 [E,,G,]2 [A,,E,]2 [A,,G,]2 | [D,F,]6 |] %20
V:4
 x2 | x8 | x8 | x8 | x6 | x2 | x8 | x8 | x8 | x6 | x2 | x6 G,2 | G,4 x4 | x8 | x6 | x2 | x8 | x8 | %18
 x8 | x6 |] %20

